icons/outline/home-cog.svg

<!--
category: Buildings
tags: [gear, house, building, settings, renovation]
unicode: "f338"
version: "1.87"
-->
<svg
  xmlns="http://www.w3.org/2000/svg"
  width="24"
  height="24"
  viewBox="0 0 24 24"
  fill="none"
  stroke="currentColor"
  stroke-width="2"
  stroke-linecap="round"
  stroke-linejoin="round"
>
  <path d="M9 21v-6a2 2 0 0 1 2 -2h1.6m7.4 -2l-8 -8l-9 9h2v7a2 2 0 0 0 2 2h4.159m6.841 -3m-2 0a2 2 0 1 0 4 0a2 2 0 1 0 -4 0m2 -3.5v1.5m0 4v1.5m3.032 -5.25l-1.299 .75m-3.463 2l-1.3 .75m0 -3.5l1.3 .75m3.463 2l1.3 .75" />
</svg>

<!--
category: Buildings
tags: [gear, house, building, settings, renovation]
unicode: "f338"
version: "1.87"
-->
<svg
  xmlns="http://www.w3.org/2000/svg"
  width="24"
  height="24"
  viewBox="0 0 24 24"
  fill="none"
  stroke="currentColor"
  stroke-width="2"
  stroke-linecap="round"
  stroke-linejoin="round"
>
    <path d="M9 21v-6a2 2 0 0 1 2 -2h1.6M20 11l-8 -8l-9 9h2v7a2 2 0 0 0 2 2h4.159M18 18m-2 0a2 2 0 1 0 4 0a2 2 0 1 0 -4 0M18 14.5v1.5M18 20v1.5M21.032 16.25l-1.299 .75M16.27 19l-1.3 .75M14.97 16.25l1.3 .75M19.733 19l1.3 .75" />
</svg>
